svg/Meteorology/icing/ice_needles.svg

<?xml version="1.0" encoding="UTF-8" standalone="no"?>
<!-- Created with Inkscape (http://www.inkscape.org/) -->
<svg
   xmlns:dc="http://purl.org/dc/elements/1.1/"
   xmlns:cc="http://web.resource.org/cc/"
   xmlns:rdf="http://www.w3.org/1999/02/22-rdf-syntax-ns#"
   xmlns:svg="http://www.w3.org/2000/svg"
   xmlns="http://www.w3.org/2000/svg"
   xmlns:sodipodi="http://sodipodi.sourceforge.net/DTD/sodipodi-0.dtd"
   xmlns:inkscape="http://www.inkscape.org/namespaces/inkscape"
   width="744.09448819"
   height="1052.3622047"
   id="svg2"
   sodipodi:version="0.32"
   inkscape:version="0.44.1"
   sodipodi:docbase="C:\Documents and Settings\pc\Desktop\meteo\meteo svg"
   sodipodi:docname="ice_needles.svg">
  <defs
     id="defs4" />
  <sodipodi:namedview
     id="base"
     pagecolor="#ffffff"
     bordercolor="#666666"
     borderopacity="1.0"
     inkscape:pageopacity="0.0"
     inkscape:pageshadow="2"
     inkscape:zoom="2.8"
     inkscape:cx="253.07612"
     inkscape:cy="420.58458"
     inkscape:document-units="px"
     inkscape:current-layer="layer1"
     showgrid="true"
     inkscape:window-width="1280"
     inkscape:window-height="744"
     inkscape:window-x="-4"
     inkscape:window-y="-4" />
  <metadata
     id="metadata7">
    <rdf:RDF>
      <cc:Work
         rdf:about="">
        <dc:format>image/svg+xml</dc:format>
        <dc:type
           rdf:resource="http://purl.org/dc/dcmitype/StillImage" />
      </cc:Work>
    </rdf:RDF>
  </metadata>
  <g
     inkscape:label="Livello 1"
     inkscape:groupmode="layer"
     id="layer1">
    <g
       id="g9681">
      <path
         id="path7903"
         d="M 215,637.36218 L 361.07143,637.36218"
         style="fill:none;fill-rule:evenodd;stroke:black;stroke-width:10.3;stroke-linecap:butt;stroke-linejoin:miter;stroke-opacity:1;stroke-miterlimit:4;stroke-dasharray:none" />
      <path
         sodipodi:nodetypes="ccccc"
         id="path8792"
         d="M 217.72163,648.79766 L 214.05983,637.11372 L 217.72163,625.09487 L 197.28089,636.68848 L 217.72163,648.79766 z "
         style="fill:black;fill-opacity:1;fill-rule:evenodd;stroke:black;stroke-width:1.79722357px;stroke-linecap:butt;stroke-linejoin:miter;stroke-opacity:1" />
      <path
         sodipodi:nodetypes="ccccc"
         id="path9679"
         d="M 358.27138,624.937 L 361.93319,636.62094 L 358.27138,648.63977 L 378.71212,637.04617 L 358.27138,624.937 z "
         style="fill:black;fill-opacity:1;fill-rule:evenodd;stroke:black;stroke-width:1.79722357px;stroke-linecap:butt;stroke-linejoin:miter;stroke-opacity:1" />
    </g>
  </g>
</svg>

<svg xmlns="http://www.w3.org/2000/svg" viewBox="0 0 744.09 1052.36"><g fill-rule="evenodd" stroke="#000"><path d="m215 637.36h146.07" fill="none" stroke-width="10.3"/><g stroke-width="1.797"><path d="m217.72 648.8l-3.662-11.684 3.662-12.02-20.441 11.594 20.441 12.11z"/><path d="m358.27 624.94l3.662 11.684-3.662 12.02 20.441-11.594-20.441-12.11z"/></g></g></svg>
